client/src/img/Figma.svg

<svg width="55" height="55" viewBox="0 0 55 55" fill="none" xmlns="http://www.w3.org/2000/svg">
<path d="M0 27.5C0 12.3122 12.3122 0 27.5 0C42.6878 0 55 12.3122 55 27.5C55 42.6878 42.6878 55 27.5 55C12.3122 55 0 42.6878 0 27.5Z" fill="#333333"/>
<path d="M22 44.0001C25.0376 44.0001 27.5 41.5377 27.5 38.5001V33.0001H22C18.9624 33.0001 16.5 35.4626 16.5 38.5001C16.5 41.5377 18.9624 44.0001 22 44.0001Z" fill="#0ACF83"/>
<path d="M16.5 27.5C16.5 24.4624 18.9624 22 22 22H27.5V33H22C18.9624 33 16.5 30.5376 16.5 27.5Z" fill="#A259FF"/>
<path d="M16.5 16.5C16.5 13.4624 18.9624 11 22 11H27.5V22H22C18.9624 22 16.5 19.5376 16.5 16.5Z" fill="#F24E1E"/>
<path d="M27.5 11H33C36.0376 11 38.5 13.4624 38.5 16.5C38.5 19.5376 36.0376 22 33 22H27.5V11Z" fill="#FF7262"/>
<path d="M38.5 27.5C38.5 30.5376 36.0376 33 33 33C29.9624 33 27.5 30.5376 27.5 27.5C27.5 24.4624 29.9624 22 33 22C36.0376 22 38.5 24.4624 38.5 27.5Z" fill="#1ABCFE"/>
</svg>

<svg width="55" height="55" fill="none" xmlns="http://www.w3.org/2000/svg"><path d="M0 27.5C0 12.312 12.312 0 27.5 0S55 12.312 55 27.5 42.688 55 27.5 55 0 42.688 0 27.5z" fill="#333"/><path d="M22 44a5.5 5.5 0 005.5-5.5V33H22a5.5 5.5 0 000 11z" fill="#0ACF83"/><path d="M16.5 27.5A5.5 5.5 0 0122 22h5.5v11H22a5.5 5.5 0 01-5.5-5.5z" fill="#A259FF"/><path d="M16.5 16.5A5.5 5.5 0 0122 11h5.5v11H22a5.5 5.5 0 01-5.5-5.5z" fill="#F24E1E"/><path d="M27.5 11H33a5.5 5.5 0 110 11h-5.5V11z" fill="#FF7262"/><path d="M38.5 27.5a5.5 5.5 0 11-11 0 5.5 5.5 0 0111 0z" fill="#1ABCFE"/></svg>
